icons/svg/contrast.svg

﻿<?xml version="1.0" encoding="utf-8"?>
<!DOCTYPE svg PUBLIC "-//W3C//DTD SVG 1.1//EN" "http://www.w3.org/Graphics/SVG/1.1/DTD/svg11.dtd">
<svg xmlns="http://www.w3.org/2000/svg" xmlns:xlink="http://www.w3.org/1999/xlink" version="1.1" baseProfile="full" width="24" height="24" viewBox="0 0 24.00 24.00" enable-background="new 0 0 24.00 24.00" xml:space="preserve">
	<path fill="#000000" fill-opacity="1" stroke-width="0.2" stroke-linejoin="round" d="M 4.38088,20.9023C 3.77952,20.7067 3.30323,20.234 3.10284,19.6348L 19.6348,3.10284C 20.234,3.30323 20.7067,3.77953 20.9023,4.38088L 4.38088,20.9023 Z M 19.9999,16.0001L 19.9999,18.0001L 13,18L 13,16L 19.9999,16.0001 Z M 2.99992,6.00008L 5.99998,6.00002L 5.99992,3.00006L 7.99992,3.00006L 7.99998,6.00002L 10.9999,6.00008L 10.9999,8.00006L 8,8L 7.99992,11.0001L 5.9999,11.0001L 5.99998,8.00002L 2.99992,8.00008L 2.99992,6.00008 Z "/>
</svg>

<svg xmlns="http://www.w3.org/2000/svg" version="1.1" baseProfile="full" width="24" height="24" viewBox="0 0 24.00 24.00" xml:space="preserve"><path fill="#000" fill-opacity="1" stroke-width=".2" stroke-linejoin="round" d="M4.38 20.902c-.6-.195-1.077-.668-1.277-1.267L19.635 3.103c.6.2 1.072.677 1.267 1.278L4.382 20.903zM20 16v2h-7v-2h7zM3 6h3V3h2v3h3v2H8v3H6V8H3V6z"/></svg>
